X:1
T:Title
%%score ( 1 2 ) { 3 | 4 }
L:1/8
Q:1/4=165
M:4/4
K:G
V:1 treble nm="Grand Piano, Soprano"
V:2 treble 
V:3 bass nm="Choir Pad, Why Do I Sing About Jesus?"
V:4 bass 
V:1
 [DB]2 [CA]2 [B,G]2 [B,D]2 | [_B,^C]2 [=B,D]2 [=CE]4- | [CE]2 [CF]6 | [B,G]2 [B,D]2 [DG]2 [CA]2 | %4
w: By~Albert~Allen~Ketchum * * *||||
 z4 B4- | B8 | [EA]2 [EA]2 [EA]2 [EA]2 | [CG]2 [CE]2 [B,G]4- | [B,G]2 D6 | %9
w: |||||
 [EG]2 [EG]2 [DG]2 [^CG]2 | [^CF]2 [CG]2 [=CA]4- | [CA]8 | [B,D]2 [B,E]2 [B,F]2 [B,G]2 | %13
w: ||||
 [CA]2 [DB]2 [^CE]4- | [CE]2 [^CA]6 | [CA]2 [CF]2 [CE]2 [CA]2 | [CF]2 [CE]2 B,4- | B,2 C6 | %18
w: |||||
 [B,D]2 [B,E]2 [B,F]2 [B,G]2 | [CA]2 [DB]2 [Ed]4- | [Ed]2 [Ec]6 | [DB]2 [B,D]2 [Ec]2 [DB]2- | %22
w: ||||
 [DB]2 [CA]2 G2- [DG-]2 | [CG-]2 [B,G]6 |] %24
w: ||
V:2
 x8 | x8 | x8 | x8 | [CD]2 [CA]2 D4- | D2 =F6 | x8 | x8 | x8 | x8 | x8 | x8 | x8 | x8 | x8 | x8 | %16
 z4 D4- | D8 | x8 | x8 | x8 | x8 | z4 B,2 z2 | x8 |] %24
V:3
 G,2 D,2 D,2 G,2 | G,2 G,2 G,4- | G,2 D,6 | D,2 G,2 G,2 F,2 | F,2 F,2 G,4- | G,8 | %6
 G,2 G,2 G,2 G,2 | E,2 G,2 G,4- | G,2 G,6 | B,2 B,2 B,2 B,2 | A,2 G,2 F,4- | F,8 | %12
 G,2 G,2 G,2 D,2 | D,2 G,2 G,4- | G,2 E,6 | F,2 A,2 G,2 F,2 | A,2 F,2 G,4- | G,2 F,6 | %18
 G,2 G,2 G,2 D,2 | D,2 G,2 ^G,4- | G,2 A,6 | G,2 G,2 G,2 F,2 | E,2 F,2 G,2 F,2 | E,2 D,6 |] %24
V:4
 G,,2 G,,2 G,,2 G,,2 | G,,2 G,,2 C,4- | C,2 A,,6 | G,,2 G,,2 B,,2 D,2 | D,2 D,2 G,,4- | G,,8 | %6
 C,2 C,2 C,2 C,2 | C,2 C,2 G,,4- | G,,2 B,,6 | E,2 E,2 E,2 A,,2 | A,,2 A,,2 D,4- | D,8 | %12
 G,,2 G,,2 G,,2 G,,2 | G,,2 G,,2 A,,4- | A,,2 A,,6 | D,2 D,2 D,2 D,2 | D,2 D,2 G,,4- | G,,2 A,,6 | %18
 G,,2 G,,2 G,,2 G,,2 | G,,2 =F,2 E,4- | E,2 A,,6 | D,2 D,2 A,,2 D,2- | D,2 D,2 G,,4- | G,,8 |] %24

